!!!COM: Debussy, (Achille-)Claude
!!!OTL: String Quartet, op. 10
!!!OMV: IV: Très modéré (Very Moderate)
!!!example: 169
!!!work: Deb-13
**kern	**dynam	**kern	**dynam	**kern	**dynam	**kern	**dynam
*part4	*part4	*part3	*part3	*part2	*part2	*part1	*part1
*staff4	*	*staff3	*	*staff2	*	*staff1	*
*I"Violoncello	*	*I"Viola	*	*I"Violin II	*	*I"Violin I	*
*I'Vc.	*	*I'Vla.	*	*I'Vln. II	*	*I'Vln. I	*
*clefF4	*	*clefC3	*	*clefG2	*	*clefG2	*
*k[b-e-]	*	*k[b-e-]	*	*k[b-e-]	*	*k[b-e-]	*
*B-:	*	*B-:	*	*B-:	*	*B-:	*
*M4/4	*	*M4/4	*	*M4/4	*	*M4/4	*
*MM264	*	*MM264	*	*MM264	*	*MM264	*
=77	=77	=77	=77	=77	=77	=77	=77
(6GG-X	p	(2C	p	1e- 1g-X	p	(4.B-~	p
6AA-X	.	.	.	.	.	.	.
6GG-)	.	.	.	.	.	.	.
.	.	.	.	.	.	8c)	.
(6GG-	.	2E-X)	.	.	.	(4.A-X~	.
6AA-	.	.	.	.	.	.	.
6GG-)	.	.	.	.	.	.	.
.	.	.	.	.	.	8c)	.
=78	=78	=78	=78	=78	=78	=78	=78
(6GG-X	.	(2G-X	.	1B- 1b-	.	2e-	.
6AA-X	.	.	.	.	.	.	.
6GG-)	.	.	.	.	.	.	.
(6GG-	.	2D-X)	.	.	.	(4f	.
6AA-	.	.	.	.	.	.	.
.	.	.	.	.	.	4d-X)	.
6GG-)	.	.	.	.	.	.	.
=79	=79	=79	=79	=79	=79	=79	=79
(6GG-X	.	(2C	.	1e- 1g-X	.	(4.B-~	.
6AA-X	.	.	.	.	.	.	.
6GG-)	.	.	.	.	.	.	.
.	.	.	.	.	.	8c)	.
(6GG-	.	2E-X)	.	.	.	(4.A-X~	.
6AA-	.	.	.	.	.	.	.
6GG-)	.	.	.	.	.	.	.
.	.	.	.	.	.	8c)	.
=80	=80	=80	=80	=80	=80	=80	=80
(6GG-X	.	(2G-X	.	1d-X 1b-	.	1B-	.
6AA-X	.	.	.	.	.	.	.
6GG-)	.	.	.	.	.	.	.
(6GG-	.	2D-X)	.	.	.	.	.
6AA-	.	.	.	.	.	.	.
6GG-)	.	.	.	.	.	.	.
=81	=81	=81	=81	=81	=81	=81	=81
!LO:TX:b:t=cresc.	!	!LO:TX:b:t=cresc.	!	!LO:TX:b:t=cresc.	!	!LO:TX:b:t=cresc.	!
(6GG-X	.	(2C	.	(4.B-	.	1e- 1g-X	.
6AA-X	.	.	.	.	.	.	.
6GG-)	.	.	.	.	.	.	.
.	.	.	.	8c)	.	.	.
(6GG-	.	2E-)	.	(4.A-X	.	.	.
6AA-	.	.	.	.	.	.	.
6GG-)	.	.	.	.	.	.	.
.	.	.	.	8c)	.	.	.
=82	=82	=82	=82	=82	=82	=82	=82
1GG-X	.	(6D-X	.	2e-	.	[1B- [1b-	.
.	.	6E-	.	.	.	.	.
.	.	6D-)	.	.	.	.	.
.	.	(6D-	.	(4f	.	.	.
.	.	6E-	.	.	.	.	.
.	.	.	.	4d-X)	.	.	.
.	.	6D-)	.	.	.	.	.
=83	=83	=83	=83	=83	=83	=83	=83
1GGn	.	(6D-X	.	2e-	.	1B-] 1b-]	.
.	.	6E-	.	.	.	.	.
.	.	6D-)	.	.	.	.	.
.	.	(6D-	.	(4f	.	.	.
.	.	6E-	.	.	.	.	.
.	.	.	.	4d-X)	.	.	.
.	.	6D-)	.	.	.	.	.
=84	=84	=84	=84	=84	=84	=84	=84
1AA-X	<	(6D-X	<	2e-	<	1c-X 1cc-X	<
.	.	6E-	.	.	.	.	.
.	.	6D-)	.	.	.	.	.
.	.	(6D-	.	(4f	.	.	.
.	.	6E-	.	.	.	.	.
.	.	.	.	4d-X)	.	.	.
.	.	6D-)	.	.	.	.	.
=85	=85	=85	=85	=85	=85	=85	=85
2.AA-X	.	(6D-X	.	2e-	.	1cn 1ccn	[[
.	.	6E-	.	.	.	.	.
.	.	6F)	.	.	.	.	.
.	.	(6A	.	(4f	.	.	.
.	.	6c	.	.	.	.	.
4r	[	.	.	4a)	[	.	.
.	.	6e-)	[[	.	.	.	.
=86	=86	=86	=86	=86	=86	=86	=86
.	.	.	.	.	.	(16qf/LL	f
.	.	.	.	.	.	16qb-/JJ	.
(6B-	f	(4.d-X	f	(8b-L	f	(4.dd)	.
.	.	.	.	8f	.	.	.
6d-X	.	.	.	.	.	.	.
.	.	.	.	8b-	.	.	.
6B-)	.	.	.	.	.	.	.
.	.	8e-)	.	8fJ)	.	8ee-)	.
(6A-X	.	(4.c	.	(8a-XL	.	(4.cc	.
.	.	.	.	8e-	.	.	.
6c	.	.	.	.	.	.	.
.	.	.	.	8a-	.	.	.
6A-)	.	.	.	.	.	.	.
.	.	8e-)	.	8e-J)	.	8ee-)	.
=87	=87	=87	=87	=87	=87	=87	=87
(6E-	.	2g-X	.	(8g-XL	.	2gg-X	.
.	.	.	.	8e-	.	.	.
6B-	.	.	.	.	.	.	.
.	.	.	.	8g-	.	.	.
6E-)	.	.	.	.	.	.	.
.	.	.	.	8e-J)	.	.	.
4D-X	.	4a-X'	.	(8fL	.	4aa-X'	.
.	.	.	.	8d-X	.	.	.
4F	.	4f'	.	8a-X	.	4ff'	.
.	.	.	.	8fJ)	.	.	.
=88	=88	=88	=88	=88	=88	=88	=88
.	.	.	.	.	.	(16qf/LL	.
.	.	.	.	.	.	16qb-/JJ	.
(6B-	.	(4.d-X	.	(8b-L	.	(4.dd-X)	.
.	.	.	.	8f	.	.	.
6d-X	.	.	.	.	.	.	.
.	.	.	.	8b-	.	.	.
6B-)	.	.	.	.	.	.	.
.	.	8e-)	.	8fJ)	.	8ee-)	.
(6A-X	.	(4.c	.	(8a-XL	.	(4.cc	.
.	.	.	.	8e-	.	.	.
6c	.	.	.	.	.	.	.
.	.	.	.	8a-	.	.	.
6A-)	.	.	.	.	.	.	.
.	.	8e-)	.	8e-J)	.	8ee-)	.
=89	=89	=89	=89	=89	=89	=89	=89
(6E-	<	2g-X	<	(8g-XL	<	2gg-X	<
.	.	.	.	8e-	.	.	.
6B-	.	.	.	.	.	.	.
.	.	.	.	8g-	.	.	.
6E-)	.	.	.	.	.	.	.
.	.	.	.	8e-J)	.	.	.
4D-X	.	4a-X~	.	(8fL	.	4aa-X~	.
.	.	.	.	8d-X	.	.	.
4F	[[	4f~	[[	8a-X	.	4ff~	[[
.	.	.	.	8fJ)	[[	.	.
=90	=90	=90	=90	=90	=90	=90	=90
[1c^	ff	(8fL	ff	(8ddnL	ff	[1bb-^	ff
.	.	8g-X	.	8ee-	.	.	.
.	.	8f	.	8dd	.	.	.
.	.	8g-J	.	8ee-J	.	.	.
.	.	8fL	.	8ddL	.	.	.
.	.	8g-	.	8ee-	.	.	.
.	.	8f	.	8dd	.	.	.
.	.	8g-J)	.	8ee-J)	.	.	.
=	=	=	=	=	=	=	=
*-	*-	*-	*-	*-	*-	*-	*-
!!!system-decoration: [(s1,s2,s3,s4)]
!!!CDT: 1862/08/22-1918/03/25
!!!CBL: St Germain-en-Laye, France
!!!CDL: Paris, France
!!!CNT: French
!!!AGN: Instrumental; Chamber
!!!MCN:
!!!MDT: 1893/12/29
!!!MGN: Ysaÿe Quartet
!!!MLC: Paris, France
!!!MPD: 1893
!!!MPN: Crickboom, Mathieu; Hout, Léon; Jacob, Joseph; Ysaÿe, Eugène
!!!ODT: 1893
!!!PDT: 1894
!!!excerpt-start-measure: 77
!!!excerpt-end-measure: 90
!!!excerpt-start-time: 2:25
!!!excerpt-end-time: 2:38
!!!EEV: 2020/01/25
!!!ONB: Converted from MusicXML on 2020/01/25
